X:1
T:Che sia dentro al mio core
T:Domenico Obizzi
T:Source : Madrigali et arie a voce sola---Libro I ---Venetia---A.Vincenti---1627. Editor : André Vierendeels (03/03/16).
T:Notes : Original clefs : C1, F4 Editorial accidentals above the staff Figures above the BC are notated in original print Notation in original print : "Alfabeto d'ariette per la Chitarra alla Spagnola", realised by the editor. 
T:Che sia dentro al mio core
T:Arietta
T:©
T:©
C:Domenico Obizzi
Z:©
%%score 1 { ( 2 3 ) | 4 }
L:1/8
Q:1/4=106
M:4/4
K:F
V:1 treble nm="Soprano" snm="S"
V:2 treble nm="MusicXML Part"
V:3 treble 
V:4 bass 
V:1
 z2 G2 B4- | BAAG A2 G2 | F2 GA D2 F2 | F3 E- F4 :: z2 C2 F2 _E/F/G/C/ | D3 D C2 CD | EFGA B2 cB | %7
w: Che sia|_ den- tro'al mio co- re,|spen- to l'an- ti- co'ar-|do- re, _|e che sia _ _ _|na- to'in me no- *|* * * * * vo de-|
w: Per voi|_ pro- vo'i mar- ti- ri,|per voi spar- go'i so-|spi- ri, _|ne ad' al- * * *|tr'og- get- to'in mai _|sa- * * * * to ri-|
w: Ad al-|* tro'in- cen- dio'ar- den- te,|sem- pre'il mio pet- to'al-|gen- te, _|s'ogn- al- tro _ _ _|met- to'in me man- *|cat _ _ _ _ _ si|
w: La not-|* te sen- za stel- le,|il sol sen- za fia-|mel- le, _|e sen- za _ _ _|fio- ri'A- pril ve- *|dras- * * * * * si|
w: Fin che|_ nel cor- po stra- le,|sta- rà l'au- ra vi-|ta- le, _|sem- pre'y ho- * * *|no- re- ro co- *|me _ _ _ _ _ v'ho-|
 A4 G4 | z2 B4 cd | c3 c d2 F2- | F2 FG G4 | F4 z2 A2- | A2 =Bc c2 B2 | c GAB cd _e/d/c/B/ | %14
w: si- o,|ah, non cre-|de- te cio Don-|* na per Di-|o, Ah,|_ non cre- de- te|cio Don- * * * * * * * *|
w: vol- to,|che'al la ce-|le- ste'I- dea del-|* vo- stro vol-|to, ch'al|_ la ce- le- ste'I-|dea del _ _ _ _ _ _ _ _|
w: ve- de,|quel- lo non|man- che- ra el-|* la mia fe-|de, quel-|* lo non man- che-|ra el- * * * * * * * *|
w: pri- a,|che man- ch'in|me l'an- ti- ca|_ fiam- ma mi-|a, che|_ man- ch'in me l'an-|ti- ca _ _ _ _ _ _ _ _|
w: no- ro,|sem- pre v'a-|do- re- ro co-|* me v'a- do-|ro, sem-|* pre v'a- do- re-|ro co- * * * * * * * *|
 A2 cB A4 | G8 :| %16
w: * na per Di-|o.|
w: _ vo- stro vol-|to.|
w: * la mia fe-|de.|
w: _ fiam- ma mi-|a.|
w: * me v'a- do-|ro.|
V:2
 B8 | c4 A2 c2 | A4 B2 c2 | d2 c2 c4 :: c6 G2 | =B4 c4 | G4 B2 G2 | A4 B4 | B6 A2 | c4 B2 A2- | %10
 A2 F2 E4 | F4 A4- | A2 G2 c2 =B2 | c4 _e2 B2 | A2 c2 A4 | B8 :| %16
V:3
 D8 | G4 F2 G2 | F2 E2 D2 C2 | F2 G2 A4 :: A4 F2 _E2 | D4 G4 | E4 D2 E2 | F4 D4 | D8 | %9
 G2 A2 F2 C2 | D4 C4- | C4 F4- | F2 E2 F2 D2 | G6 D2 | F2 _E2 F4 | D8 :| %16
V:4
 G,,4 G,2 D,2 | E,4 F,2 E,2 | D,2 C,2 B,,2 A,,2 | B,,2 C,2 F,,4 ::"^b" F,,4 F,,2 C,2 | G,,4 C,4 | %6
 C,2 B,,A,, G,,2 C,2 | D,4 G,,4 | G,,4 G,2 D,2 | _E,2 F,2 B,,3 C, | D,2 B,,2 C,4 | F,,4 F,3 G, | %12
 A,2 E,2 F,2 G,2 | C,4 C,2 G,,2 | D,2 C,2 D,4 | G,,8 :| %16

